X: 040593
T: Drunken Piper
S: J. O'Brien: "Irish Folk Dance Music" 
Z: B.Black
M: 6/8
L: 1/8
R: jig 
K: Edor
F | DFF FEF | AFF F2 E | DFF FEF | AFE E2 F |
DFF FEF | DFA d2 e | fed BdB | AFE E2 :|
f | ecA AcA | ecA A2 f | ecA Ace | fdB Baf |
ecA BAF | Ace a2 b | c'ba faf | ecB B2 :|
A | dFF FEF | AFF FEF | dFF dFF | AFE E2 A |
dFF FEF | DFA d2 e | fed BdB | AFE E2 :|
